images/ico_wp.svg

<svg width="32" height="32" viewBox="0 0 32 32" fill="none" xmlns="http://www.w3.org/2000/svg">
<path d="M0 12C0 5.37258 5.37258 0 12 0H20C26.6274 0 32 5.37258 32 12V20C32 26.6274 26.6274 32 20 32H12C5.37258 32 0 26.6274 0 20V12Z" fill="#20CD43"/>
<path fill-rule="evenodd" clip-rule="evenodd" d="M19.2211 15.9489L20.7662 17.1506C21.1096 17.391 21.3156 17.7687 21.3156 18.1808C21.35 18.5928 21.1783 19.0048 20.9036 19.2795L19.5644 20.6187C19.1181 21.0994 18.4656 21.3398 17.8476 21.3398C17.4699 21.3398 17.0922 21.2711 16.7145 21.0651C15.5127 20.4127 14.3795 19.5886 13.4181 18.6271C12.4567 17.6657 11.6326 16.5669 10.9802 15.3308C10.4995 14.3694 10.6712 13.2019 11.4266 12.4465L12.7657 11.1073C13.0404 10.8326 13.4525 10.661 13.8645 10.6953C14.2765 10.6953 14.6542 10.9013 14.8946 11.2447L16.0964 12.8242C16.4398 13.3049 16.4054 13.9573 15.9934 14.3694L15.547 14.8157C15.753 15.1591 15.9934 15.5025 16.2681 15.7772C16.5771 16.0519 16.8862 16.2922 17.2295 16.4982L17.6759 16.0519C18.0879 15.6398 18.7403 15.5711 19.2211 15.9489ZM18.603 19.6572L19.9421 18.3181V18.2494C19.9421 18.2151 19.9078 18.2151 19.9078 18.2151L18.5 17.1163L18.0193 17.597C17.6759 17.9404 17.1608 18.0434 16.7145 17.803C16.1651 17.5284 15.6844 17.1506 15.2723 16.7386C14.8603 16.3266 14.4826 15.8458 14.2079 15.2964C13.9675 14.8501 14.0705 14.3007 14.4139 13.9573L14.8603 13.5453L13.7615 12.1031C13.7615 12.0859 13.7615 12.0774 13.7572 12.0731C13.7529 12.0688 13.7443 12.0688 13.7271 12.0688H13.6928L12.3537 13.4079C12.0103 13.7513 11.9416 14.2663 12.1476 14.6784C12.7314 15.7772 13.4525 16.7729 14.3452 17.6657C15.238 18.5585 16.2337 19.2795 17.3325 19.8633C17.7446 20.0693 18.2596 20.0006 18.603 19.6572Z" fill="white"/>
<path fill-rule="evenodd" clip-rule="evenodd" d="M18.157 7.26112C21.3502 8.05106 23.8911 10.592 24.7152 13.751C25.5393 16.91 24.5439 20.4122 22.106 22.6441C19.4964 25.0477 15.7191 25.6657 12.4571 24.3266C11.8562 24.4983 11.2467 24.6614 10.6372 24.8245C10.0277 24.9876 9.41825 25.1507 8.81735 25.3224C8.43965 25.4254 7.89025 25.1164 7.95893 24.67C8.04477 24.0519 8.12203 23.4338 8.19929 22.8158C8.27655 22.1977 8.3538 21.5796 8.43965 20.9616C6.24208 17.5279 6.58545 12.9954 9.29807 9.97374C11.4956 7.50147 14.9639 6.47117 18.157 7.26112ZM12.8691 23.0222C16.1996 24.5332 20.2514 23.3999 22.3116 20.3782C23.9941 17.8714 24.0971 14.5755 22.5176 12.0002C20.9726 9.49361 17.9853 8.05145 14.998 8.4635C12.1137 8.80687 9.57277 10.9014 8.68 13.6827C8.16495 15.262 8.19929 17.0132 8.74868 18.5927C8.92036 19.0391 9.12638 19.4855 9.36674 19.8975C9.43124 20.0265 9.5092 20.1421 9.58377 20.2526C9.62829 20.3185 9.6716 20.3827 9.71011 20.4469C9.82987 20.6864 9.793 20.952 9.75883 21.1982C9.75381 21.2344 9.74885 21.2701 9.74445 21.3053C9.69294 21.7174 9.64144 22.1209 9.58993 22.5243C9.53843 22.9278 9.48692 23.3312 9.43542 23.7433C9.91614 23.6059 10.3969 23.4772 10.8776 23.3484C11.3583 23.2196 11.839 23.0909 12.3197 22.9535C12.5257 22.9192 12.6974 22.9535 12.8348 23.0222H12.8691Z" fill="white"/>
</svg>

<svg width="32" height="32" fill="none" xmlns="http://www.w3.org/2000/svg"><path d="M0 12C0 5.373 5.373 0 12 0h8c6.627 0 12 5.373 12 12v8c0 6.627-5.373 12-12 12h-8C5.373 32 0 26.627 0 20v-8z" fill="#20CD43"/><path fill-rule="evenodd" clip-rule="evenodd" d="M19.221 15.949l1.545 1.202c.344.24.55.618.55 1.03.034.412-.138.824-.412 1.098l-1.34 1.34c-.446.48-1.098.72-1.716.72-.378 0-.756-.068-1.133-.274a14.387 14.387 0 01-3.297-2.438 13.683 13.683 0 01-2.438-3.296c-.48-.962-.309-2.13.447-2.884l1.339-1.34a1.423 1.423 0 011.098-.412c.412 0 .79.206 1.03.55l1.202 1.58c.344.48.31 1.132-.103 1.544l-.446.447c.206.343.446.686.721.961.31.275.618.515.962.721l.446-.446a1.157 1.157 0 011.545-.103zm-.618 3.708l1.34-1.339v-.069c0-.034-.035-.034-.035-.034L18.5 17.116l-.48.481c-.344.343-.86.446-1.305.206a5.61 5.61 0 01-1.443-1.064 5.611 5.611 0 01-1.064-1.443 1.144 1.144 0 01.206-1.339l.446-.412-1.098-1.442c0-.017 0-.026-.005-.03-.004-.004-.013-.004-.03-.004h-.034l-1.34 1.339a1.102 1.102 0 00-.205 1.27 12.43 12.43 0 002.197 2.988 12.427 12.427 0 002.987 2.197c.413.206.928.138 1.271-.206z" fill="#fff"/><path fill-rule="evenodd" clip-rule="evenodd" d="M18.157 7.261c3.193.79 5.734 3.331 6.558 6.49.824 3.159-.171 6.661-2.609 8.893-2.61 2.404-6.387 3.022-9.649 1.683-.6.171-1.21.334-1.82.497-.61.164-1.219.327-1.82.498-.377.103-.927-.206-.858-.652.086-.618.163-1.236.24-1.854.078-.618.155-1.236.24-1.854-2.197-3.434-1.854-7.967.86-10.988C11.495 7.5 14.963 6.47 18.156 7.26zm-5.288 15.761c3.33 1.511 7.382.378 9.443-2.644 1.682-2.507 1.785-5.803.206-8.378-1.545-2.506-4.533-3.949-7.52-3.537-2.884.344-5.425 2.438-6.318 5.22-.515 1.579-.48 3.33.069 4.91.171.446.377.892.618 1.305.064.128.142.244.217.355.044.066.088.13.126.194.12.24.083.505.049.751l-.015.107a460 460 0 01-.154 1.22l-.155 1.218c.481-.137.962-.266 1.443-.395.48-.128.961-.257 1.442-.395a.826.826 0 01.515.07h.034z" fill="#fff"/></svg>
